X:3029
T:Christy Barry's #2
M:6/8
L:1/8
S:Kevin Crawford, _D Flute Album_
K:G
EDG EDB,|DEG B3|DEG B2e|dBe dBA|
EDG EDB,|DEG B3|dBd gfe|1 dBA G3:||2 dBa g3|
||:gab age|deg B3|gab gab|dBd e2d|
gab age|deg B3|dBd gfe|1 dBa g3:||2 dBA G3|


